assets/images/logo.svg

<svg xmlns="http://www.w3.org/2000/svg" width="200" height="60" fill="none"><g clip-path="url(#a)"><path fill="#26292F" d="M7.5 7.5h45v45h-45zM77.5 7.5h45v45h-45zM147.5 7.5h45v45h-45z"/><path fill="#FFD7F2" d="M105.25 18.966q-2.01-1.62-5.49-1.62h-7.14V30.17h7.32q3.48 0 5.4-1.83c1.28-1.22 1.92-2.725 1.92-4.525v-.12q0-3.114-2.01-4.735z"/><path fill="#FFD7F2" d="M70 0v60h60V0zm46.62 23.64q0 3.654-1.32 6.415c-.88 1.84-2.09 3.375-3.63 4.615q-2.31 1.861-5.4 2.785-3.09.93-6.63.93h-7.02V50.97h-9.24V9.02h17.16q3.78 0 6.75 1.05t5.04 2.965a12.95 12.95 0 0 1 3.18 4.585c.74 1.78 1.11 3.745 1.11 5.905v.12zM140 0v60h60V0zm45.42 46.75a19.3 19.3 0 0 1-3.66 2.29c-1.325.64-2.775 1.12-4.35 1.45s-3.345.49-5.305.49c-2.96 0-5.705-.54-8.245-1.625q-3.803-1.621-6.57-4.435-2.766-2.811-4.325-6.635c-1.04-2.55-1.555-5.275-1.555-8.175v-.115c0-2.9.52-5.61 1.555-8.145 1.04-2.53 2.48-4.755 4.325-6.665q2.768-2.871 6.63-4.52 3.864-1.65 8.53-1.65c1.88 0 3.605.155 5.16.465s2.97.735 4.235 1.275c1.27.54 2.44 1.2 3.515 1.97a24.5 24.5 0 0 1 3 2.55l-5.65 6.55q-2.362-2.145-4.815-3.36-2.452-1.215-5.505-1.215-2.534.001-4.7.985a11.2 11.2 0 0 0-3.72 2.725 12.6 12.6 0 0 0-2.42 4.03q-.864 2.289-.865 4.9v.115a14 14 0 0 0 .865 4.925c.575 1.545 1.375 2.9 2.39 4.055q1.53 1.741 3.69 2.755t4.755 1.015q3.457 0 5.85-1.275T182.99 38l5.65 5.74a29 29 0 0 1-3.23 3.015zM0 0v60h60V0zm47.42 17.53H34.64v33.45H25.4V17.53H12.62V9.015h34.8z"/></g><defs><clipPath id="a"><path fill="#fff" d="M0 0h200v60H0z"/></clipPath></defs></svg>

<svg width="200" height="60" viewBox="0 0 200 60" fill="none" xmlns="http://www.w3.org/2000/svg">
<g clip-path="url(#clip0_28621_4041)">
<rect x="7.5" y="7.5" width="45" height="45" fill="#26292F"/>
<rect x="77.5" y="7.5" width="45" height="45" fill="#26292F"/>
<rect x="147.5" y="7.5" width="45" height="45" fill="#26292F"/>
<path d="M105.25 18.9657C103.91 17.8857 102.08 17.3457 99.7601 17.3457H92.6201V30.1707H99.9401C102.26 30.1707 104.06 29.5607 105.34 28.3407C106.62 27.1207 107.26 25.6157 107.26 23.8157V23.6957C107.26 21.6207 106.59 20.0407 105.25 18.9607V18.9657Z" fill="#FFD7F2"/>
<path d="M70 0V60H130V0H70ZM116.62 23.64C116.62 26.075 116.18 28.215 115.3 30.055C114.42 31.895 113.21 33.43 111.67 34.67C110.13 35.91 108.33 36.84 106.27 37.455C104.21 38.075 102 38.385 99.64 38.385H92.62V50.97H83.38V9.02H100.54C103.06 9.02 105.31 9.37 107.29 10.07C109.27 10.77 110.95 11.76 112.33 13.035C113.71 14.315 114.77 15.84 115.51 17.62C116.25 19.4 116.62 21.365 116.62 23.525V23.645V23.64Z" fill="#FFD7F2"/>
<path d="M140 0V60H200V0H140ZM185.42 46.75C184.305 47.64 183.085 48.4 181.76 49.04C180.435 49.68 178.985 50.16 177.41 50.49C175.835 50.82 174.065 50.98 172.105 50.98C169.145 50.98 166.4 50.44 163.86 49.355C161.325 48.275 159.135 46.795 157.29 44.92C155.445 43.045 154.005 40.835 152.965 38.285C151.925 35.735 151.41 33.01 151.41 30.11V29.995C151.41 27.095 151.93 24.385 152.965 21.85C154.005 19.32 155.445 17.095 157.29 15.185C159.135 13.27 161.345 11.765 163.92 10.665C166.495 9.565 169.34 9.015 172.45 9.015C174.33 9.015 176.055 9.17 177.61 9.48C179.165 9.79 180.58 10.215 181.845 10.755C183.115 11.295 184.285 11.955 185.36 12.725C186.435 13.5 187.435 14.35 188.36 15.275L182.71 21.825C181.135 20.395 179.53 19.275 177.895 18.465C176.26 17.655 174.425 17.25 172.39 17.25C170.7 17.25 169.135 17.58 167.69 18.235C166.25 18.895 165.01 19.8 163.97 20.96C162.93 22.12 162.125 23.46 161.55 24.99C160.975 26.515 160.685 28.15 160.685 29.89V30.005C160.685 31.745 160.975 33.385 161.55 34.93C162.125 36.475 162.925 37.83 163.94 38.985C164.96 40.145 166.19 41.065 167.63 41.74C169.07 42.415 170.655 42.755 172.385 42.755C174.69 42.755 176.64 42.33 178.235 41.48C179.83 40.63 181.415 39.47 182.99 38L188.64 43.74C187.605 44.86 186.525 45.865 185.41 46.755L185.42 46.75Z" fill="#FFD7F2"/>
<path d="M0 0V60H60V0H0ZM47.42 17.53H34.64V50.98H25.4V17.53H12.62V9.015H47.42V17.53Z" fill="#FFD7F2"/>
</g>
<defs>
<clipPath id="clip0_28621_4041">
<rect width="200" height="60" fill="white"/>
</clipPath>
</defs>
</svg>
